assets/uswds/img/material-icons/backup_table.svg

<svg xmlns="http://www.w3.org/2000/svg" width="24" height="24" viewBox="0 0 24 24"><path d="M20 6v14H6v2h14c1.1 0 2-.9 2-2V6h-2z"/><path d="M16 2H4c-1.1 0-2 .9-2 2v12c0 1.1.9 2 2 2h12c1.1 0 2-.9 2-2V4c0-1.1-.9-2-2-2zM9 16H4v-5h5v5zm7 0h-5v-5h5v5zm0-7H4V4h12v5z"/></svg>

<svg xmlns="http://www.w3.org/2000/svg" enable-background="new 0 0 24 24" height="24" viewBox="0 0 24 24" width="24"><g><rect fill="none" height="24" width="24"/></g><g><g><path d="M20,6v14H6v2h14c1.1,0,2-0.9,2-2V6H20z"/><path d="M16,2H4C2.9,2,2,2.9,2,4v12c0,1.1,0.9,2,2,2h12c1.1,0,2-0.9,2-2V4C18,2.9,17.1,2,16,2z M9,16H4v-5h5V16z M16,16h-5v-5h5 V16z M16,9H4V4h12V9z"/></g></g></svg>
